-----BEGIN PGP PUBLIC KEY BLOCK-----

mQINBGm6rOoBEADZtZaL6pPBCRh+G60dLvIxYL+zf7VA0j+Iz+GWCVlh8A4WfNLS
KwbhA+GS2CEf0aJ8wlklO2fM2OvxT0BYaROlGB0IaZ0+H0jknhLJOpDZRsgL5xRj
r0sLiOApPLuAOt/eVAtoaNNW9z0jIeteDQYMj4oDP5KOAP2MAd8w5dy7/qZhY1+X
ltOw5H+2mYzyW0EEdgJqlc7NmTjs8EI7RxenXXs5hPehARE9R4OEnhHhV/z7Mq77
xFIE4h3nw/5PI6XjDxdTar72/qpFUUJCOGI/4w/wsR4Gcf9BrIiYMgspjZZpxlCw
Gplz5INOr39HyW3AwbEyy/nQAzu/bnDGr7c34Y7Tl3RCIZbdKleITthuYwhSi4c3
lb9+RN02ZEITJaAEBiaJvtcMvi7drFcyLj1GghZ7EmCzJOP5oEVD4o2EEgioVqKF
poEhPPb1MSV636HsWABPvZOaqgMO5XoOHKjvrDsJxaUNdomO+NqobKZF1Wsd7ykk
ZbKeURIK4Q1bykiVPckFHCswd/O6FTSv2z10Cy4jL9Ff/Zke5MlHaDpVk/dEzqE4
28imtzPKEAULB6MmO/Q6izXF6PGbKhRfXxM+8FZihpPG5Wx8I4XgA1gie1bkntHq
qsGj+/xG29S9OQ3xk9qaHfdnqPpCHcQDQMRfdeuJUTy+bAQRc7qRwNu3AwARAQAB
tEdJdmFuIEZlcm5hbmRvIEd1YWxvdHXDsWEgQm9sYWdheSAoMTIzNDU2NzgpIDxp
dmFuZmVybmFuZG8xMHFAZ21haWwuY29tPokCVwQTAQoAQRYhBJqMG6mq3h5fJhpr
ijVRPx5NM4DJBQJpuqzqAhsDBQkB4TOABQsJCAcCAiICBhUKCQgLAgQWAgMBAh4H
AheAAAoJEDVRPx5NM4DJyhcQAL1qzhRJ1oBcMtXvg0/AznuY+UNw6n7CEcLhkf0W
JgZ4nCQieUGmZHhqCdFaHC4B7Dsinl9m5e7eppZJdegOmpGwFDKPega1xAS0CdyL
IGZ4MjgDtfa7zK80nXBo0L+FM770E8YmYA54Y/1EN815DYPVc7wmyda7SMsrUcY6
nLbr6LGsO98u0dqm/jJeQCN2gWorbiwO4SG4mBETmAPvPzLPxkEPaQjUD+OTG4WP
mxFsRpIj3HiHZfAktZEDd3L8U7H0VO+5IS7OWAnwgoRpj42keZ3OnX+WVcKP5nuK
O6fXkE2G2maJHV6ADQXSkIbx2zI2uGzJM+0ICHsWI6VbY00qP/BwjGUtiHCUcLH2
bJcpjftruV/XFq3l4lGTMvxl2fmhipIjG+9gZM3d588EdR7rN6MmFhQkkefREPVj
EHdY/PMMd3JXuPMPuEMDmky+Xre98+bm9MxhBazQ6syIM+KYgVU+lAiZPnrHxnIP
6/O/WxXTe88cIFWAo+OFi34kH6RYnI5ZUnUthzNRL3N7C51Or0KB2MuwY0stcUFq
9SuaexC5gbX3QB2yMJLt/OWNiuDVGI9NjEsc2Yo5DkYrTkDkMAC4WwdGVaUY2p+S
sk0udojxr3I0js7V1bZ4/Wu5AH1krdHeC2hv9LPydmxO2cQpOdi95uLkE4ldmGNQ
NvtguQINBGm6rOoBEADN3DJSucrukECcP/0+6UoyOiy7LI34J0Zc6XPW0FXPmjIY
eBfzF5W0FRubb4XoNc0kd8Ln1a3HrARCt78rHFVAs4nb6InEia2siniVS3sbeg2W
vzxJzH4nTsdvYwGLI1wqgw1mq1XiL39h1XcFelzPh2/nWlKlxswq7XLQWhFFRkbS
LiTpJ6BSq4ZTHzsVZi+dWqmJTXV2jPtFdRY6+XI54QgvmFnuZKtIj+1UMu8Hy4Bp
WgWO2YpVUSSXebtFlaDzupLwp3yjaCTTid0ib01/K2Y/G6bGOFSJY/kqIsCwmJQC
sbDObqPXqSU8BqHW4XcygVy1N2aXB0dPGRSy2hE7oXuRkXB26AhpJayTAVIh9odM
Edc/XYW6weOchKdN30ykGblO5jTv65pqWbtDPFvFeZiTB/GjwPQ7jlNjemdMMmUL
lIcmK5uZiHB037LviuR/Okcx1zLir8yhZTc55IF4biMdRfz/JpH3PS3DflPZDtZT
dG5Z4uOcCxW6fEeao9oIaNrreG3Ou7oiBssDqAuChEmhbxgE3AdEsNw+GUAO+/mo
fxor2doYDe07a9+8WQceV/7ImBHY9Mroq+KX1LNGnoxUcygJWdzsiAiD4ETW13wR
OYdqUs9xZ2JgpJPHtuKA/vux95ng4YEdVN/zqp+Irpf5EpvxExsaeLFR3a+oXQAR
AQABiQI8BBgBCgAmFiEEmowbqareHl8mGmuKNVE/Hk0zgMkFAmm6rOoCGwwFCQHh
M4AACgkQNVE/Hk0zgMkHtRAA0/eNb6+o0iB9mtgDVE7p7CQAzr6dURkZXycrmZZl
yFrzA8EcdSc+fK5v9NKNQ38ofP/siLZeWCRjj50TZK/myBAc5sxgU3M+D2E/+Gw1
Av41kBMTzB+Erk2+DqQLrH1ZfxY0n7K4w/K7ZvLv5fr8HPGvw02l93wmE3nnTACl
7NKmYu57B+NyZM53fZcQ0fyUZ5eLtb6QgU87t+KgFWtDtjVVrDfJo4S+nlR30He2
yeIjIKB2MiswdrXqe3aXT2T18WTWLKwqNuR1Kamm9aLjEdvmQ1927WTWVVZeRQmk
Th1Xn1QKjXQlrMPZfBZEnB3SEpjk1GQQZcXHuy5QokpsfhDB6+P6TQAUvzUAYuCg
0XZIYkHe6JrfR9Y/QbD0vOIYVRZDQinBNYYNGj7xl+9CjnZGkRzPtS516wd6qlTR
imuzdeRsI88xGdx3ZUiEYAMDwCLFD2aXSULS0gMNgBREC4e9oDp8n16kprR1tAZu
KqC6emlhvCBONHBvcatnfiQXFEWRweHc+fr0ijBI6W2G6wtmbtS3vgbvSINdJ9Fg
OdVhmwA0AgrejWL1bv3+oTBG8vzy4W4KPODdtfjBkHv5sY00cDdnhlnI1w2LYn5b
14HuwtsJMoxRQjTz199ViFxCWvC1BVF5ZvKEJx6Gbm+FeGp43aeiShrQANP27nIS
KkY=
=VAFB
-----END PGP PUBLIC KEY BLOCK-----
